storage/app/icons/tabler/filled/square-rounded-letter-x.svg

<!--
unicode: "fdd6"
version: "3.0"
-->
<svg
  xmlns="http://www.w3.org/2000/svg"
  width="24"
  height="24"
  viewBox="0 0 24 24"
  fill="currentColor"
>
  <path d="M11.676 2.001l.324 -.001c7.752 0 10 2.248 10 10l-.005 .642c-.126 7.235 -2.461 9.358 -9.995 9.358l-.642 -.005c-7.13 -.125 -9.295 -2.395 -9.358 -9.67v-.325c0 -7.643 2.185 -9.936 9.676 -9.999m2.771 5.105a1 1 0 0 0 -1.341 .447l-1.106 2.21l-1.106 -2.21a1 1 0 0 0 -1.234 -.494l-.107 .047a1 1 0 0 0 -.447 1.341l1.774 3.553l-1.775 3.553a1 1 0 0 0 .345 1.283l.102 .058a1 1 0 0 0 1.341 -.447l1.107 -2.211l1.106 2.211a1 1 0 0 0 1.234 .494l.107 -.047a1 1 0 0 0 .447 -1.341l-1.776 -3.553l1.776 -3.553a1 1 0 0 0 -.345 -1.283z" />
</svg>

<svg xmlns="http://www.w3.org/2000/svg" width="24" height="24" fill="currentColor" viewBox="0 0 24 24"><path d="M11.676 2.001 12 2c7.752 0 10 2.248 10 10l-.005.642C21.869 19.877 19.534 22 12 22l-.642-.005C4.228 21.87 2.063 19.6 2 12.325V12c0-7.643 2.185-9.936 9.676-9.999m2.771 5.105a1 1 0 0 0-1.341.447L12 9.763l-1.106-2.21a1 1 0 0 0-1.234-.494l-.107.047a1 1 0 0 0-.447 1.341L10.88 12l-1.775 3.553a1 1 0 0 0 .345 1.283l.102.058a1 1 0 0 0 1.341-.447L12 14.236l1.106 2.211a1 1 0 0 0 1.234.494l.107-.047a1 1 0 0 0 .447-1.341L13.118 12l1.776-3.553a1 1 0 0 0-.345-1.283z"/></svg>
